assets/efishery/petani-topi-caping-fill.svg

<svg width="24" height="25" viewBox="0 0 24 25" fill="none" xmlns="http://www.w3.org/2000/svg">
<path fill-rule="evenodd" clip-rule="evenodd" d="M11.0149 3.35405C12.0676 3.15055 13.2767 3.29326 14.1403 4.23686C14.3335 4.44786 14.5134 4.70222 14.5468 4.98959C14.5654 5.14968 14.5374 5.31411 14.4509 5.46275C14.3682 5.60501 14.2506 5.70108 14.1395 5.7655C13.9294 5.88735 13.6687 5.93863 13.4303 5.96376C13.1794 5.99022 12.8923 5.99313 12.5913 5.98248C11.8158 5.95505 10.8198 5.82867 9.93911 5.71691L9.89098 5.7108L19.3136 12.0264C19.494 12.1095 19.6651 12.2007 19.8257 12.3003C20.4747 12.7029 20.9888 13.2694 21.1818 14.0156C21.3748 14.7618 21.1998 15.5065 20.8274 16.1733C20.4575 16.8355 19.8732 17.4615 19.1572 18.0287C17.7235 19.1644 15.6476 20.1547 13.2717 20.7691C10.8959 21.3835 8.60012 21.5238 6.79565 21.2256C5.89448 21.0767 5.07991 20.8124 4.43538 20.4126C3.78637 20.01 3.27228 19.4435 3.0793 18.6973C2.88632 17.9511 3.06131 17.2064 3.43375 16.5396C3.51629 16.3918 3.60951 16.2458 3.71248 16.1019L7.63568 5.31804C7.71449 5.10143 7.88852 4.93308 8.10763 4.86152C8.17782 4.83859 8.25014 4.82641 8.32232 4.82467L8.40268 4.73686C8.97288 4.1139 9.97034 3.55599 11.0149 3.35405ZM10.084 4.7266L10.1465 4.73457C10.9948 4.84277 11.8911 4.95709 12.6266 4.98311C12.9041 4.99292 13.1396 4.98887 13.3254 4.96927C13.3686 4.96472 13.4067 4.95955 13.44 4.9541C13.4287 4.94093 13.4163 4.92691 13.4027 4.91204C12.8554 4.31415 12.0544 4.17162 11.2047 4.33587C10.8073 4.4127 10.4229 4.5533 10.084 4.7266ZM14.8135 10.8159L13.9641 10.2466L13.6137 11.1227L12.2155 10.3237L12.5558 9.3027L11.6942 8.72521L11.33 9.81773L10.0782 9.10237L10.499 7.92409L9.64222 7.34983L9.19628 8.59844L8.23772 8.05069L7.89082 9.00421L8.85466 9.55498L8.32375 11.0415L7.33034 10.5448L6.9862 11.4908L7.98495 11.9902L7.69397 12.8049L6.65876 12.3908L6.31671 13.3311L6.85012 13.5444C7.45321 13.2162 8.11201 12.9122 8.81454 12.6405L8.88592 12.4407L9.08287 12.5391C9.51806 12.3785 9.96897 12.2302 10.4329 12.0961L9.22472 11.492L9.73655 10.0589L11.0076 10.7852L10.585 12.0528C10.7188 12.0152 10.8536 11.9789 10.9894 11.9438C11.2389 11.8793 11.4875 11.82 11.7348 11.7659L11.893 11.2912L12.468 11.6198C13.1974 11.4888 13.9104 11.4038 14.5944 11.3636L14.8135 10.8159ZM5.04594 16.8241C5.29182 16.5134 5.62124 16.188 6.03533 15.86C7.26974 14.8821 9.14297 13.9707 11.3649 13.396C13.5869 12.8214 15.6672 12.7104 17.2209 12.9672C17.7575 13.0559 18.2142 13.1856 18.5858 13.3443L18.7667 13.4656C18.5196 13.7718 18.1348 14.1345 17.5898 14.5264C16.2573 15.4847 14.2246 16.4339 11.8084 17.0854C9.39178 17.7371 7.1745 17.9336 5.56769 17.7695C5.26187 17.7383 4.98875 17.695 4.74798 17.6431L5.04594 16.8241Z" fill="#1D1D1D"/>
</svg>

<svg viewBox="0 0 24 25" xmlns="http://www.w3.org/2000/svg">
  <path fill-rule="evenodd" clip-rule="evenodd" d="M11.015 3.354c1.053-.203 2.262-.06 3.125.883.194.21.373.465.407.753a.758.758 0 0 1-.096.473.843.843 0 0 1-.312.303c-.21.121-.47.173-.709.198-.25.026-.538.03-.839.018-.775-.027-1.771-.153-2.652-.265l-.048-.006 9.423 6.315c.18.084.351.175.512.274.649.403 1.163.97 1.356 1.716.193.746.018 1.49-.355 2.157-.37.663-.954 1.289-1.67 1.856-1.433 1.135-3.51 2.126-5.885 2.74-2.376.615-4.672.755-6.476.457-.902-.15-1.716-.414-2.36-.813-.65-.403-1.164-.97-1.357-1.716-.193-.746-.018-1.49.355-2.157.082-.148.176-.294.278-.438L7.636 5.318a.75.75 0 0 1 .686-.493l.08-.088c.57-.623 1.568-1.181 2.613-1.383zm-.931 1.373.063.008c.848.108 1.744.222 2.48.248.277.01.513.006.698-.014.044-.004.082-.01.115-.015a1.775 1.775 0 0 0-.037-.042c-.548-.598-1.349-.74-2.198-.576a4.275 4.275 0 0 0-1.121.39zm4.73 6.089-.85-.57-.35.877-1.399-.8.34-1.02-.86-.578-.365 1.093-1.252-.716.421-1.178-.857-.574-.446 1.248-.958-.547-.347.953.964.551-.531 1.486-.994-.496-.344.946.999.5-.291.814-1.035-.414-.342.94.533.213a16.787 16.787 0 0 1 1.965-.904l.07-.2.198.1c.435-.161.886-.31 1.35-.444l-1.208-.604.512-1.433 1.27.726-.422 1.268a19.928 19.928 0 0 1 1.15-.287l.158-.475.575.329c.73-.131 1.442-.216 2.126-.256l.22-.548zm-9.768 6.008c.246-.31.575-.636.99-.964 1.234-.978 3.107-1.89 5.329-2.464 2.222-.575 4.302-.686 5.856-.429.537.089.993.219 1.365.377l.18.122c-.246.306-.631.668-1.176 1.06-1.333.959-3.365 1.908-5.782 2.56-2.416.651-4.633.848-6.24.684a7.532 7.532 0 0 1-.82-.127l.298-.819z"/>
</svg>
